glass-mug-variant-off.svg

<svg fill="currentColor" viewBox="0 0 24 24"><path d="M8.44 5.24 7 3.79C7.71 3.29 8.57 3 9.5 3c1.03 0 2 .35 2.82 1H14c2.21 0 4 1.79 4 4v2h2c.55 0 1 .45 1 1v6.8l-2-2V12h-2v1.8l-5.74-5.74C11.5 8 11.73 8 12 8h4a2 2 0 0 0-2-2h-2.5a2.49 2.49 0 0 0-3.06-.76m13.67 16.22-1.27 1.27L18.11 20H17v2H6v-8c-2.21 0-4-1.79-4-4a4 4 0 0 1 2.44-3.67L1.11 3l1.28-1.27 4.8 4.81 2.42 2.42L17 16.34v.01L18.65 18h.01l1.84 1.84v.01zM8.59 10.5 6.11 8H6a2 2 0 0 0-2 2c0 1.11.89 2 2 2 0 0 1.68.13 2.5-1.37z"/></svg>

<svg  viewBox="0 0 24 24" fill="currentColor"><path  d="M8.44 5.24L7 3.79C7.71 3.29 8.57 3 9.5 3C10.53 3 11.5 3.35 12.32 4H14C16.21 4 18 5.79 18 8V10H20C20.55 10 21 10.45 21 11V17.8L19 15.8V12H17V13.8L11.26 8.06C11.5 8 11.73 8 12 8H16C16 6.9 15.11 6 14 6H11.5C11.03 5.37 10.29 5 9.5 5C9.12 5 8.76 5.09 8.44 5.24M22.11 21.46L20.84 22.73L18.11 20H17V22H6V14C3.79 14 2 12.21 2 10C2 8.37 3 6.94 4.44 6.33L1.11 3L2.39 1.73L7.19 6.54L9.61 8.96L17 16.34V16.35L18.65 18H18.66L20.5 19.84V19.85L22.11 21.46M8.59 10.5L6.11 8H6C4.89 8 4 8.9 4 10C4 11.11 4.89 12 6 12C6 12 7.68 12.13 8.5 10.63L8.59 10.5Z"/></svg>
